**kern
*MM76
*k[f#]
*M4/4
=1
8r
8B
4B
8r
8B
4B
=2
8r
8B
8E
8F#
8G
8B
8E
8F#
=3
4G
8r
16B
16F#
4G
8r
16B
16F#
=4
4G
8r
8e
8f#
8A#
16r
16B
16A
16G
=5
8F#
16B
16F#
8G
16c
16G
8A
16d
16A
8B
16e
16B
=6
8c
8B
8A
8G
4F#
8r
8F#
=7
4G
8r
16B
16F#
4G
8r
16B
16F#
=8
8B
8d#
8e
8d#
4e
8r
8d#
=9
8e
8d
4c
4B
8B
8A
=10
8r
8e
4e
8r
8e
4e
=11
8r
8e
8B
8c#
8d
8f#
8b
8c#
=12
8d
[8c#
8c#]
16f#
16c#
8d
8A#
8B
16f#
16c#
=13
8d
8A#
8B
16f#
16c#
4d
8r
8a#
=14
8b
8a#
4b
4.b
8a#
=15
8b
8B
8e
8d
8c#
8A
8d
8c
=16
8B
8F#
8G
8G#
8A
8A#
8B
8b
=17
8cc
8cc#
8dd
8dd#
8ee
16b
16f#
8g
8g#
=18
16a
16b
16g
16a
16f#
16g
16e
16f#
8d#
8B
8e
8g
=19
4f#
8r
8f#
4g
8r
8f#
=20
4e
8r
8f#
4e
8r
8d#
=21
4e
8r
8e
4.d
8c
=22
4BB
[4c
4c]
[4BB
=23
8.BB]
16e
8e
16a
16d#
8e
16f#
16e
8.d#
16e
=24
4e
8r
8g#
4a
8r
8g#
=25
4a
8a#
8r
4b
8r
8f#
=26
4f#
8r
8a#
8b
4f#
8e
=27
4f#
4e
8d#
8b
4b
=28
8r
8b
4b
8r
8b
8e
8f#
=29
8g
8b
8e
8f#
8g
8e
[4a
=30
8a]
16f#
16d#
[4g
8g]
16e
16c#
[4f#
=31
8f#]
16d#
16B
[4e
4.e]
[8e
=32
4e]
4d#
8d
16c
16B
8c
8B
=33
8A
8G
8B
8e
4D#
8r
8f#
*
=34
4e
8r
8e
4f#
4r
=35
8r
8B
4B
4r
8r
8A
=36
1G#
==
*-
